;FLAVOR:UltiGCode
;TIME:46095
;MATERIAL:46995
;MATERIAL2:0
;NOZZLE_DIAMETER:0.4
;MINX:68.387
;MINY:38.073
;MINZ:0.27
;MAXX:208.625
;MAXY:136.908
;MAXZ:40.47
;Generated with Cura_SteamEngine 4.4.0
M82 ;absolute extrusion mode

G92 E0
G92 E0
G10
;LAYER_COUNT:269
;LAYER:0
M107
G0 F4500 X69.765 Y85.648 Z0.27
;TYPE:SKIRT
G11
G1 F900 X70.201 Y85.395 E0.04764
G1 X70.671 Y85.214 E0.09523
G1 X71.395 Y85.089 E0.16466
G1 X72.976 Y85.001 E0.3143
G1 X75.758 Y84.799 E0.57789
G1 X78.495 Y84.521 E0.83787
G1 X81.162 Y84.175 E1.09201
G1 X83.893 Y83.74 E1.35334
G1 X86.621 Y83.228 E1.61564
G1 X89.242 Y82.658 E1.86911
G1 X91.911 Y81.999 E2.12891
G1 X94.564 Y81.262 E2.38911
G1 X97.184 Y80.455 E2.64818
G1 X99.775 Y79.575 E2.90677
G1 X102.322 Y78.629 E3.16352
G1 X104.881 Y77.596 E3.42431
G1 X107.38 Y76.503 E3.68206
G1 X109.862 Y75.333 E3.94137
G1 X112.31 Y74.094 E4.20064
G1 X114.722 Y72.786 E4.45994
G1 X117.082 Y71.418 E4.71772
G1 X119.402 Y69.984 E4.97546
G1 X121.728 Y68.455 E5.2385
G1 X123.919 Y66.921 E5.49125
G1 X126.151 Y65.267 E5.75378
G1 X128.321 Y63.559 E6.01475
G1 X130.397 Y61.828 E6.27018
G1 X132.432 Y60.029 E6.52686
G1 X134.466 Y58.13 E6.78982
G1 X136.392 Y56.227 E7.04569
G1 X138.298 Y54.232 E7.30642
G1 X140.126 Y52.207 E7.56422
G1 X141.922 Y50.1 E7.82586
G1 X143.614 Y48 E8.08071
G1 X145.281 Y45.804 E8.34125
G1 X146.88 Y43.57 E8.60086
G1 X148.4 Y41.313 E8.85801
G1 X149.229 Y40.007 E9.00419
G1 X149.255 Y39.966 E9.00878
G1 X149.543 Y39.527 E9.05839
G1 X149.852 Y39.13 E9.10594
G1 X150.22 Y38.786 E9.15354
G1 X150.637 Y38.504 E9.20111
G1 X151.094 Y38.292 E9.24872
G1 X151.579 Y38.155 E9.29634
G1 X151.998 Y38.1 E9.33628
G1 X152.33 Y38.079 E9.36772
G1 X152.53 Y38.073 E9.38662
G1 X181.538 Y38.073 E12.12788
G1 X182.236 Y38.083 E12.19385
G1 X182.738 Y38.13 E12.24149
G1 X183.225 Y38.256 E12.28903
G1 X183.687 Y38.458 E12.33668
G1 X184.208 Y38.806 E12.39589
G1 X184.942 Y39.41 E12.48572
G1 X187.078 Y41.135 E12.74517
G1 X189.252 Y42.79 E13.00337
G1 X191.493 Y44.399 E13.26408
G1 X193.76 Y45.93 E13.52259
G1 X196.06 Y47.391 E13.78008
G1 X198.811 Y49.024 E14.0824
G1 X199.222 Y49.314 E14.12994
G1 X199.582 Y49.666 E14.17752
G1 X199.882 Y50.071 E14.22515
G1 X200.114 Y50.518 E14.27274
G1 X200.273 Y50.996 E14.32034
G1 X200.363 Y51.656 E14.38329
G1 X200.373 Y51.98 E14.41392
G1 X200.375 Y52.078 E14.42319
G1 X200.375 Y55.436 E14.74052
G1 X200.415 Y58.235 E15.00505
G1 X200.53 Y60.951 E15.26194
G1 X200.723 Y63.669 E15.51944
G1 X200.997 Y66.44 E15.78258
G1 X201.335 Y69.083 E16.03437
G1 X201.768 Y71.836 E16.29773
G1 X202.27 Y74.539 E16.55753
G1 X202.842 Y77.195 E16.81428
G1 X203.49 Y79.837 E17.07135
G1 X204.224 Y82.509 E17.3332
G1 X205.03 Y85.142 E17.59342
G1 X205.892 Y87.696 E17.84815
G1 X206.85 Y90.294 E18.10982
G1 X207.912 Y92.934 E18.37873
G1 X208.362 Y94.009 E18.48886
G1 X208.52 Y94.488 E18.53652
G1 X208.606 Y95.088 E18.5938
G1 X208.622 Y95.43 E18.62616
G1 X208.625 Y95.578 E18.64015
G1 X208.625 Y124.551 E21.37809
G1 X208.616 Y125.278 E21.4468
G1 X208.57 Y125.78 E21.49444
G1 X208.445 Y126.268 E21.54204
G1 X208.244 Y126.73 E21.58966
G1 X207.973 Y127.154 E21.63721
G1 X207.639 Y127.53 E21.68473
G1 X207.249 Y127.849 E21.73235
G1 X206.813 Y128.102 E21.77998
G1 X206.343 Y128.283 E21.82758
G1 X205.851 Y128.387 E21.8751
G1 X205.533 Y128.413 E21.90525
G1 X204.122 Y128.454 E22.03865
G1 X204.101 Y128.454 E22.04063
G1 X203.296 Y128.472 E22.11672
G1 X200.58 Y128.606 E22.3737
G1 X197.791 Y128.821 E22.63804
G1 X195.135 Y129.102 E22.89043
G1 X192.357 Y129.476 E23.15532
G1 X189.709 Y129.909 E23.40888
G1 X186.978 Y130.435 E23.6717
G1 X184.368 Y131.015 E23.92437
G1 X181.666 Y131.695 E24.18767
G1 X179.021 Y132.442 E24.4474
G1 X176.427 Y133.254 E24.70426
G1 X173.819 Y134.152 E24.96492
G1 X171.278 Y135.109 E25.22151
G1 X169.577 Y135.795 E25.39483
G1 X168.374 Y136.293 E25.51787
G1 X168.347 Y136.304 E25.52062
G1 X167.405 Y136.684 E25.61661
G1 X166.924 Y136.835 E25.66426
G1 X166.426 Y136.908 E25.71182
G1 X165.922 Y136.901 E25.75945
G1 X165.302 Y136.78 E25.81915
G1 X164.581 Y136.563 E25.8903
G1 X164.533 Y136.548 E25.89505
G1 X163.33 Y136.165 E26.01436
G1 X160.7 Y135.408 E26.27298
G1 X158.052 Y134.727 E26.53136
G1 X155.362 Y134.114 E26.79209
G1 X152.683 Y133.584 E27.05016
G1 X149.985 Y133.128 E27.30873
G1 X147.263 Y132.748 E27.56846
G1 X144.528 Y132.445 E27.8285
G1 X141.811 Y132.22 E28.08613
G1 X139.096 Y132.073 E28.34308
G1 X136.345 Y132.003 E28.60313
G1 X133.589 Y132.01 E28.86357
G1 X130.87 Y132.094 E29.12064
G1 X128.156 Y132.254 E29.37756
G1 X125.402 Y132.496 E29.63881
G1 X121.497 Y132.974 E30.01059
G1 X120.178 Y133.163 E30.13651
G1 X119.831 Y133.193 E30.16942
G1 X119.492 Y133.204 E30.20148
G1 X119.389 Y133.206 E30.21121
G1 X118.131 Y133.206 E30.33009
G1 X117.431 Y133.196 E30.39625
G1 X117.252 Y133.188 E30.41318
G1 X116.247 Y133.117 E30.50839
G1 X113.494 Y132.962 E30.76896
G1 X110.736 Y132.884 E31.0297
G1 X108.017 Y132.884 E31.28664
G1 X105.264 Y132.962 E31.5469
G1 X102.506 Y133.118 E31.80795
G1 X101.78 Y133.175 E31.87677
G1 X101.661 Y133.182 E31.88804
G1 X101.143 Y133.203 E31.93703
G1 X101.014 Y133.206 E31.94922
G1 X99.943 Y133.206 E32.05043
G1 X99.245 Y133.196 E32.1164
G1 X98.743 Y133.149 E32.16404
G1 X98.256 Y133.023 E32.21158
G1 X97.794 Y132.821 E32.25923
G1 X97.37 Y132.55 E32.30678
G1 X97.098 Y132.318 E32.34057
G1 X95.092 Y130.403 E32.60265
G1 X93.075 Y128.579 E32.85963
G1 X90.972 Y126.784 E33.12091
G1 X88.867 Y125.085 E33.37655
G1 X86.67 Y123.414 E33.63739
G1 X84.462 Y121.83 E33.89419
G1 X82.168 Y120.282 E34.15571
G1 X79.883 Y118.832 E34.41145
G1 X77.487 Y117.404 E34.67503
G1 X75.147 Y116.098 E34.92827
G1 X72.701 Y114.822 E35.18898
G1 X70.218 Y113.615 E35.44988
G1 X70.031 Y113.516 E35.46988
G1 X69.996 Y113.496 E35.47369
G1 X69.58 Y113.212 E35.52128
G1 X69.214 Y112.866 E35.56888
G1 X68.907 Y112.467 E35.61646
G1 X68.667 Y112.024 E35.66407
G1 X68.501 Y111.548 E35.71171
G1 X68.397 Y110.829 E35.78036
G1 X68.388 Y110.51 E35.81052
G1 X68.387 Y110.42 E35.81902
G1 X68.387 Y88.907 E37.852
G1 X68.396 Y88.218 E37.91712
G1 X68.443 Y87.716 E37.96476
G1 X68.568 Y87.228 E38.01237
G1 X68.769 Y86.766 E38.05998
G1 X69.04 Y86.342 E38.10753
G1 X69.375 Y85.966 E38.15512
G1 X69.765 Y85.648 E38.20268
G10
;MESH:Sleeping_Fox_Tail_Blue.stl
G0 F4500 X72.101 Y87.554
G0 X72.101 Y88.789
G0 X73.837 Y108.475
;TYPE:WALL-INNER
G11
G1 F900 X73.837 Y90.525 E39.89895
G1 X84.099 Y90.525 E40.86871
G1 X84.099 Y108.475 E42.56498
G1 X73.837 Y108.475 E43.53474
G0 F4500 X73.487 Y108.825
G1 F900 X73.487 Y90.175 E45.29717
G1 X84.449 Y90.175 E46.33308
G1 X84.449 Y108.825 E48.0955
G1 X73.487 Y108.825 E49.13141
G0 F4500 X73.137 Y109.175
G1 F900 X73.137 Y89.825 E50.95999
G1 X84.799 Y89.825 E52.06205
G1 X84.799 Y109.175 E53.89062
G1 X73.137 Y109.175 E54.99268
G0 F4500 X72.787 Y109.525
G1 F900 X72.787 Y89.475 E56.8874
G1 X85.149 Y89.475 E58.05561
G1 X85.149 Y109.525 E59.95034
G1 X72.787 Y109.525 E61.11855
G0 F4500 X72.437 Y109.875
G1 F900 X72.437 Y89.125 E63.07942
G1 X85.499 Y89.125 E64.31378
G1 X85.499 Y109.875 E66.27466
G1 X72.437 Y109.875 E67.50902
G0 F4500 X72.087 Y110.225
G1 F900 X72.087 Y88.775 E69.53604
G1 X85.849 Y88.775 E70.83655
G1 X85.849 Y110.225 E72.86357
G1 X72.087 Y110.225 E74.16408
G0 F4500 X71.762 Y110.55
;TYPE:WALL-OUTER
G1 F900 X71.762 Y88.45 E76.25253
G1 X86.174 Y88.45 E77.61447
G1 X86.174 Y110.55 E79.70292
G1 X71.762 Y110.55 E81.06485
G0 F4500 X71.762 Y110.35
G0 X72.157 Y110.155
G0 X74.177 Y108.135
;TYPE:SKIN
G1 F900 X74.177 Y90.865 E82.69687
G1 X83.759 Y90.865 E83.60237
G1 X83.759 Y108.135 E85.23438
G1 X74.177 Y108.135 E86.13988
G0 F4500 X74.814 Y107.977
G1 F900 X74.333 Y107.497 E86.2041
G0 F4500 X74.333 Y107.002
G1 F900 X75.308 Y107.977 E86.3344
G0 F4500 X75.803 Y107.977
G1 F900 X74.333 Y106.507 E86.53085
G0 F4500 X74.333 Y106.012
G1 F900 X76.298 Y107.977 E86.79346
G0 F4500 X76.793 Y107.977
G1 F900 X74.333 Y105.517 E87.12222
G0 F4500 X74.333 Y105.022
G1 F900 X77.288 Y107.977 E87.51714
G0 F4500 X77.783 Y107.977
G1 F900 X74.333 Y104.527 E87.97821
G0 F4500 X74.333 Y104.032
G1 F900 X78.278 Y107.977 E88.50543
G0 F4500 X78.773 Y107.977
G1 F900 X74.333 Y103.537 E89.09881
G0 F4500 X74.333 Y103.042
G1 F900 X79.268 Y107.977 E89.75834
G0 F4500 X79.763 Y107.977
G1 F900 X74.333 Y102.547 E90.48402
G0 F4500 X74.333 Y102.052
G1 F900 X80.258 Y107.977 E91.27585
G0 F4500 X80.753 Y107.977
G1 F900 X74.333 Y101.557 E92.13384
G0 F4500 X74.333 Y101.062
G1 F900 X81.248 Y107.977 E93.05799
G0 F4500 X81.743 Y107.977
G1 F900 X74.333 Y100.567 E94.04828
G0 F4500 X74.333 Y100.072
G1 F900 X82.238 Y107.977 E95.10473
G0 F4500 X82.733 Y107.977
G1 F900 X74.333 Y99.577 E96.22733
G0 F4500 X74.333 Y99.082
G1 F900 X83.228 Y107.977 E97.41609
G0 F4500 X83.601 Y107.855
G1 F900 X74.333 Y98.587 E98.6547
G0 F4500 X74.333 Y98.092
G1 F900 X83.601 Y107.36 E99.8933
G0 F4500 X83.601 Y106.865
G1 F900 X74.333 Y97.597 E101.13191
G0 F4500 X74.333 Y97.102
G1 F900 X83.601 Y106.37 E102.37051
G0 F4500 X83.601 Y105.875
G1 F900 X74.333 Y96.607 E103.60912
G0 F4500 X74.333 Y96.112
G1 F900 X83.601 Y105.38 E104.84772
G0 F4500 X83.601 Y104.885
G1 F900 X74.333 Y95.617 E106.08633
G0 F4500 X74.333 Y95.122
G1 F900 X83.601 Y104.39 E107.32493
G0 F4500 X83.601 Y103.895
G1 F900 X74.333 Y94.627 E108.56354
G0 F4500 X74.333 Y94.132
G1 F900 X83.601 Y103.4 E109.80214
G0 F4500 X83.601 Y102.905
G1 F900 X74.333 Y93.637 E111.04075
G0 F4500 X74.333 Y93.142
G1 F900 X83.601 Y102.41 E112.27935
G0 F4500 X83.601 Y101.916
G1 F900 X74.333 Y92.647 E113.51802
G0 F4500 X74.333 Y92.152
G1 F900 X83.601 Y101.421 E114.75669
G0 F4500 X83.601 Y100.926
G1 F900 X74.333 Y91.658 E115.9953
G0 F4500 X74.333 Y91.163
G1 F900 X83.601 Y100.431 E117.2339
G0 F4500 X83.601 Y99.936
G1 F900 X74.687 Y91.021 E118.42527
G0 F4500 X75.182 Y91.021
G1 F900 X83.601 Y99.441 E119.55047
G0 F4500 X83.601 Y98.946
G1 F900 X75.677 Y91.021 E120.60953
G0 F4500 X76.172 Y91.021
G1 F900 X83.601 Y98.451 E121.60243
G0 F4500 X83.601 Y97.956
G1 F900 X76.667 Y91.021 E122.52918
G0 F4500 X77.162 Y91.021
G1 F900 X83.601 Y97.461 E123.38978
G0 F4500 X83.601 Y96.966
G1 F900 X77.657 Y91.021 E124.18422
G0 F4500 X78.152 Y91.021
G1 F900 X83.601 Y96.471 E124.91251
G0 F4500 X83.601 Y95.976
G1 F900 X78.647 Y91.021 E125.57464
G0 F4500 X79.142 Y91.021
G1 F900 X83.601 Y95.481 E126.17062
G0 F4500 X83.601 Y94.986
G1 F900 X79.637 Y91.021 E126.70045
G0 F4500 X80.132 Y91.021
G1 F900 X83.601 Y94.491 E127.16413
G0 F4500 X83.601 Y93.996
G1 F900 X80.627 Y91.021 E127.56165
G0 F4500 X81.122 Y91.021
G1 F900 X83.601 Y93.501 E127.89302
G0 F4500 X83.601 Y93.006
G1 F900 X81.617 Y91.021 E128.15823
G0 F4500 X82.112 Y91.021
G1 F900 X83.601 Y92.511 E128.35729
G0 F4500 X83.601 Y92.016
G1 F900 X82.607 Y91.021 E128.4902
G0 F4500 X83.102 Y91.021
G1 F900 X83.601 Y91.521 E128.55696
G1 X83.663 Y91.583
G10
;MESH:Sleeping_Fox_Eyes-Nose_Black.stl
G0 F4500 X85.835 Y110.211
G0 X87.07 Y110.211
G0 X100.398 Y110.211
G0 X101.639 Y110.211
G0 X101.969 Y115.781
;TYPE:WALL-INNER
G11
G1 F900 X101.969 Y107.219 E129.36607
G1 X102.469 Y107.219 E129.41332
G1 X102.469 Y115.781 E130.22242
G1 X101.969 Y115.781 E130.26967
G0 F4500 X101.619 Y116.131
G1 F900 X101.619 Y106.869 E131.14493
G1 X102.819 Y106.869 E131.25833
G1 X102.819 Y116.131 E132.13359
G1 X101.619 Y116.131 E132.24699
G0 F4500 X101.294 Y116.456
;TYPE:WALL-OUTER
G1 F900 X101.294 Y106.544 E133.18368
G1 X103.144 Y106.544 E133.3585
G1 X103.144 Y116.456 E134.29519
G1 X101.294 Y116.456 E134.47001
G0 F4500 X101.294 Y116.256
G0 X101.866 Y115.781
G10
G0 X102.799 Y114.475
G0 X104.04 Y114.475
G0 X108.273 Y114.475
G0 X109.514 Y114.475
G0 X111.244 Y114.475
;TYPE:WALL-INNER
G11
G1 F900 X111.244 Y108.525 E135.03229
G1 X111.756 Y108.525 E135.08067
G1 X111.756 Y114.475 E135.64294
G1 X111.244 Y114.475 E135.69133
G0 F4500 X110.894 Y114.825
G1 F900 X110.894 Y108.175 E136.31975
G1 X112.106 Y108.175 E136.43429
G1 X112.106 Y114.825 E137.06271
G1 X110.894 Y114.825 E137.17725
G0 F4500 X110.544 Y115.175
G1 F900 X110.544 Y107.825 E137.87182
G1 X112.456 Y107.825 E138.05251
G1 X112.456 Y115.175 E138.74708
G1 X110.544 Y115.175 E138.92776
G0 F4500 X110.194 Y115.525
G1 F900 X110.194 Y107.475 E139.68849
G1 X112.806 Y107.475 E139.93532
G1 X112.806 Y115.525 E140.69605
G1 X110.194 Y115.525 E140.94288
G0 F4500 X109.844 Y115.875
G1 F900 X109.844 Y107.125 E141.76976
G1 X113.156 Y107.125 E142.08274
G1 X113.156 Y115.875 E142.90962
G1 X109.844 Y115.875 E143.2226
G0 F4500 X109.494 Y116.225
G1 F900 X109.494 Y106.775 E144.11563
G1 X113.506 Y106.775 E144.49476
G1 X113.506 Y116.225 E145.38778
G1 X109.494 Y116.225 E145.76692
G0 F4500 X109.169 Y116.55
;TYPE:WALL-OUTER
G1 F900 X109.169 Y106.45 E146.72137
G1 X113.831 Y106.45 E147.16193
G1 X113.831 Y116.55 E148.11638
G1 X109.169 Y116.55 E148.55694
G0 F4500 X109.169 Y116.35
G0 X109.564 Y116.155
G0 X111.599 Y114.074
;TYPE:SKIN
G1 F900 X111.4 Y113.875 E148.58353
G0 F4500 X111.599 Y113.579
G1 F900 X111.4 Y113.38 E148.61013
G0 F4500 X111.599 Y113.084
G1 F900 X111.4 Y112.885 E148.63672
G0 F4500 X111.599 Y112.589
G1 F900 X111.4 Y112.39 E148.66332
G0 F4500 X111.599 Y112.094
G1 F900 X111.4 Y111.895 E148.68991
G0 F4500 X111.599 Y111.599
G1 F900 X111.4 Y111.4 E148.71651
G0 F4500 X111.599 Y111.104
G1 F900 X111.4 Y110.905 E148.7431
G0 F4500 X111.599 Y110.609
G1 F900 X111.4 Y110.41 E148.7697
G0 F4500 X111.599 Y110.114
G1 F900 X111.4 Y109.915 E148.79629
G0 F4500 X111.599 Y109.619
G1 F900 X111.4 Y109.42 E148.82289
G0 F4500 X111.599 Y109.124
G1 F900 X111.4 Y108.925 E148.84948
G10
G0 F4500 X113.486 Y115.781
G0 X114.727 Y115.781
G0 X118.96 Y115.781
G0 X120.201 Y115.781
G0 X120.531 Y115.781
;TYPE:WALL-INNER
G11
G1 F900 X120.531 Y107.219 E149.65859
G1 X121.031 Y107.219 E149.70584
G1 X121.031 Y115.781 E150.51495
G1 X120.531 Y115.781 E150.5622
G0 F4500 X120.181 Y116.131
G1 F900 X120.181 Y106.869 E151.43746
G1 X121.381 Y106.869 E151.55086
G1 X121.381 Y116.131 E152.42612
G1 X120.181 Y116.131 E152.53952
G0 F4500 X119.856 Y116.456
;TYPE:WALL-OUTER
G1 F900 X119.856 Y106.544 E153.4762
G1 X121.706 Y106.544 E153.65103
G1 X121.706 Y116.456 E154.58771
G1 X119.856 Y116.456 E154.76254
G0 F4500 X119.856 Y116.256
G0 X120.428 Y115.781
G10
;MESH:Sleeping_Fox_Ears_Blue.stl
G0 X118.96 Y116.117
G0 X102.04 Y125.508
G0 X100.805 Y125.508
G0 X100.156 Y129.156
;TYPE:WALL-INNER
G11
G1 F900 X100.156 Y125.844 E155.07552
G1 X100.469 Y125.844 E155.1051
G1 X100.469 Y129.156 E155.38499
G1 X100.156 Y129.156 E155.41457
G0 F4500 X99.806 Y129.506
G1 F900 X99.806 Y125.494 E155.79371
G1 X100.819 Y125.494 E155.88944
G1 X100.819 Y129.506 E156.26857
G1 X99.806 Y129.506 E156.3643
G0 F4500 X99.481 Y129.831
;TYPE:WALL-OUTER
G1 F900 X99.481 Y125.169 E156.80486
G1 X101.144 Y125.169 E156.96201
G1 X101.144 Y129.831 E157.40257
G1 X99.481 Y129.831 E157.55972
G0 F4500 X99.481 Y129.631
G0 X100.053 Y129.156
G10
G0 X100.799 Y129.156
G0 X102.04 Y129.156
G0 X116.773 Y129.156
G0 X118.014 Y129.156
G0 X118.344 Y129.156
;TYPE:WALL-INNER
G11
G1 F900 X118.344 Y125.844 E157.87271
G1 X118.844 Y125.844 E157.91996
G1 X118.844 Y129.156 E158.23294
G1 X118.344 Y129.156 E158.28019
G0 F4500 X117.994 Y129.506
G1 F900 X117.994 Y125.494 E158.65933
G1 X119.194 Y125.494 E158.77273
G1 X119.194 Y129.506 E159.15186
G1 X117.994 Y129.506 E159.26526
G0 F4500 X117.669 Y129.831
;TYPE:WALL-OUTER
G1 F900 X117.669 Y125.169 E159.70582
G1 X119.519 Y125.169 E159.88064
G1 X119.519 Y129.831 E160.3212
G1 X117.669 Y129.831 E160.49603
G0 F4500 X117.669 Y129.631
G0 X118.241 Y129.156
G10
;MESH:Sleeping_Fox_Body_Blue.stl
G0 X119.18 Y125.508
G0 X119.18 Y124.273
G0 X122.59 Y117.34
G0 X130.02 Y97.121
G0 X131.159 Y96.648
G0 X131.404 Y96.561
;TYPE:WALL-INNER
G11
G1 F900 X131.152 Y96.666 E160.52183
G1 X124.666 Y81.009 E162.12334
G1 X125.071 Y80.841 E162.16478
G1 X131.498 Y96.334 E163.74984
G1 X131.565 Y96.495 E163.76632
G1 X131.404 Y96.561 E163.77693
G0 F4500 X131.829 Y96.737
;TYPE:WALL-OUTER
G1 F900 X130.976 Y97.09 E163.86417
G1 X124.242 Y80.834 E165.52695
G1 X125.085 Y80.483 E165.61324
G1 X125.246 Y80.416 E165.62972
G1 X125.313 Y80.577 E165.64038
G1 X131.923 Y96.51 E167.27047
G1 X131.99 Y96.671 E167.28695
G1 X131.829 Y96.737 E167.29756
G0 F4500 X131.645 Y96.813
G0 X131.108 Y96.306
G10
;MESH:Sleeping_Fox_Body_White.stl
G0 X131.111 Y96.306
